icon-themes/sifr_svg/cmd/lc_symbolshapes.forbidden.svg

<svg viewBox="0 0 24 24" xmlns="http://www.w3.org/2000/svg"><g fill="#555753"><path d="m12 4a8 8 0 0 0 -8 8 8 8 0 0 0 8 8 8 8 0 0 0 8-8 8 8 0 0 0 -8-8zm.253906 4.0117188c2.009334.1276821 3.610599 1.7289471 3.738282 3.7382812zm-4.2460935 4.2382812 3.7382815 3.738281c-2.0093341-.127682-3.6105988-1.728947-3.7382815-3.738281z" opacity=".35"/><path d="m12 2c-5.5228475 0-10 4.4771525-10 10 0 5.522847 4.4771525 10 10 10 5.522847 0 10-4.477153 10-10 0-5.5228475-4.477153-10-10-10zm0 2c4.418278 0 8 3.581722 8 8s-3.581722 8-8 8-8-3.581722-8-8 3.581722-8 8-8zm0 2c-.522043.00345-1.041403.075018-1.544922.2128906-.7001783.1906402-1.3577381.5876371-1.9277342.9003906l.00195.00195 6.9121122 6.9121128 1.44336 1.443359.002.002c.435635-.618189.671941-1.29086.902343-1.925828.146689-.524969.165961-1.086896.210891-1.546875 0-3.3137085-2.686292-6-6-6zm.253906 2.0117188c2.009334.1276822 3.610599 1.7289471 3.738282 3.7382812zm-5.1406248.515625c-.4356425.6181676-.6719435 1.2908249-.9023436 1.9257812-.1467231.524945-.166001 1.086899-.2109376 1.546875 0 3.313708 2.6862915 6 6 6 .522043-.0035 1.041403-.07502 1.544922-.212891.69967-.183475 1.353827-.582359 1.927775-.9l-.002-.002-1.443359-1.44336c-2.304031-2.304379-4.6080671-4.608416-6.9121036-6.9124521zm.8867188 3.7226562 3.746094 3.738281c-2.0093339-.127682-3.6105988-1.728947-3.746094-3.738281z"/></g></svg>

<svg xmlns="http://www.w3.org/2000/svg" viewBox="0 0 24 24">
  <path
     style="opacity:0.35;fill:#555753"
     d="M 12 4 A 8 8 0 0 0 4 12 A 8 8 0 0 0 12 20 A 8 8 0 0 0 20 12 A 8 8 0 0 0 12 4 z M 12.253906 8.0117188 C 14.26324 8.1394009 15.864505 9.7406659 15.992188 11.75 L 12.253906 8.0117188 z M 8.0078125 12.25 L 11.746094 15.988281 C 9.7367599 15.860599 8.1354952 14.259334 8.0078125 12.25 z "
     />
  <path
     style="fill:#555753"
     d="M 12,2 C 6.4771525,2 2,6.4771525 2,12 2,17.522847 6.4771525,22 12,22 17.522847,22 22,17.522847 22,12 22,6.4771525 17.522847,2 12,2 Z m 0,2 c 4.418278,0 8,3.581722 8,8 0,4.418278 -3.581722,8 -8,8 C 7.581722,20 4,16.418278 4,12 4,7.581722 7.581722,4 12,4 Z m 0,2 C 11.477957,6.00345 10.958597,6.075018 10.455078,6.2128906 9.7548997,6.4035308 9.0973399,6.8005277 8.5273438,7.1132812 l 0.00195,0.00195 6.9121122,6.9121128 1.44336,1.443359 0.002,0.002 c 0.435635,-0.618189 0.671941,-1.29086 0.902343,-1.925828 C 17.935798,13.021906 17.95507,12.459979 18,12 18,8.6862915 15.313708,6 12,6 Z m 0.253906,2.0117188 C 14.26324,8.139401 15.864505,9.7406659 15.992188,11.75 Z M 7.1132812,8.5273438 C 6.6776387,9.1455114 6.4413377,9.8181687 6.2109376,10.453125 6.0642145,10.97807 6.0449366,11.540024 6,12 c 0,3.313708 2.6862915,6 6,6 0.522043,-0.0035 1.041403,-0.07502 1.544922,-0.212891 0.69967,-0.183475 1.353827,-0.582359 1.927775,-0.9 l -0.002,-0.002 -1.443359,-1.44336 C 11.723307,13.13737 9.4192709,10.833333 7.1152344,8.5292969 Z M 8,12.25 11.746094,15.988281 C 9.7367601,15.860599 8.1354952,14.259334 8,12.25 Z"
     />
</svg>
